X: 33377
T: Queen Of The West, The
R: hornpipe
M: 4/4
K: Gminor
P:A
dc|:"Bb"Bdfd (3Bcd F2|"F"cefe (3cde F2|"Bb"dfbd "Eb"egc'e|"F"fBdf (3agf (3edc|
"Bb"Bdfd (3Bcd F2|"F"cefe (3cde F2|"Bb"dfbd "Eb"egcA|1 "Bb"B2BA BFdc:|2 "Bb"B2BA Bded||
P:B
|:"F"cA (3FGF cFAc|"Bb"dB (3FBF dFBd|"Eb"efde "Bb"cdBd|"C"(3cdc (3BAG "F"FGAB|
cA (3FGF cFAc|"Bb"dB (3FBF dFBd|"Eb"egfe "Bb"dB"F"cA|"Bb"B2BA Bded|
"F"cA (3FGF cFAc|"Bb"dB (3FBF dFBd|"Eb"e2 (3ded "Bb"(3cdc B2|
"C"(3cdc d=e "F"f3f|fcAc (3FAc (3edc|"Bb"dB (3FBF dFBd|"Eb"egfe "Bb"dB"F"cA|1 "Bb"B2BA "F"Bded:|2 "Bb"B2BA "F"BF||


